UI/Data/SVG/pipeline_solid_24px.svg

<svg width="24" height="24" viewBox="0 0 24 24" fill="none" xmlns="http://www.w3.org/2000/svg">
<path d="M12 2H11C5.99997 2.19 1.99997 3.69 1.99997 5.5C1.99604 5.67307 2.03376 5.84456 2.10997 6C2.35099 6.35038 2.61489 6.68444 2.89997 7C4.48997 8.91 9.48997 14.43 9.48997 14.43C9.81744 14.7957 9.99896 15.2691 9.99997 15.76V22H14V15.76C14.001 15.2691 14.1825 14.7957 14.51 14.43C14.51 14.43 19.51 8.91 21.1 7C21.3851 6.68444 21.649 6.35038 21.89 6C21.9662 5.84456 22.0039 5.67307 22 5.5C22 3.57 17.52 2 12 2ZM12 7C11.65 7 11.33 7 11 7C8.67351 7.03226 6.3719 6.51851 4.27997 5.5C6.3719 4.48149 8.67351 3.96774 11 4C11.33 4 11.65 4 12 4C16.05 4 18.74 4.86 19.72 5.5C18.74 6.14 16.05 7 12 7Z" fill="#0F1621"/>
</svg>

<svg xmlns="http://www.w3.org/2000/svg" width="24" height="24" viewBox="0 0 24 24"><rect width="24" height="24" style="fill:none"/><path d="M12,2,11,2h0C6,2.19,2,3.69,2,5.5a1.08,1.08,0,0,0,.11.5A9.65,9.65,0,0,0,2.9,7c1.59,1.91,6.59,7.43,6.59,7.43A2,2,0,0,1,10,15.76V22h4V15.76a2,2,0,0,1,.51-1.33s5-5.52,6.59-7.43a9.65,9.65,0,0,0,.79-1A1.08,1.08,0,0,0,22,5.5C22,3.57,17.52,2,12,2Zm0,5c-.35,0-.67,0-1,0h0A14.88,14.88,0,0,1,4.28,5.5,14.88,14.88,0,0,1,11,4h0c.33,0,.65,0,1,0,4.05,0,6.74.86,7.72,1.5C18.74,6.14,16.05,7,12,7Z"/></svg>
